X: 1
T: Larry O'Gaff
C: J-11
C: Irish, New England
M: 6/8
Z: Transcribed to abc by Mary Lou Knack
R: jig
% %staffwidth 12cm
K: G
(3d/e/f/| "G"g2G BAG| d>ed dBG| "C"c>ec "G"B>dB| "D"ABc def|
          "G"g2G BAG| d>ed dBG| "C"c>ec "G"B>dB| "D"AGA "G"G2 :|
|:\
d| "G"dgg gfg| gfg "A7"afd| "D"daa aga| aga "G"b2a|
   "G"gba "C"gfe| "G"dge dBG| "C"c>ec "G"B>dB| "D"AGA "G"G2 :|
%%text 12/03/98
